X: 4
T: The Boyne Hunt
R: reel
M: 4/4
L: 1/8
K: Amaj
E2CE A,ECE|A,ECE FB,B,2|E2CE A,ECE|EFAB cAAF:|| ceec efec | d3e fdBd | ceec efec| BcAB cAA2 || ceec efec | d3e fdBd | c2cB ABAF | EFAB cAAF ||| eAAe fA e2 | AAae cB B2 | eAAe fA eA | ecBe cAA2 || cAeA fAeA | aece fB B2 | fecA BFAF|EFAB cAAF :||


Tune 142	Setting 12763

